X:73
%
T:Rose in the Heather
C:Traditional
L:1/8
M:6/8
Q:1/4=80
K:D treble
%
|: "D" F3 FEF | DFA BAF | "E" FGd ede | "A" fdB AFE |
"D" F3 FEF | DFA BAF | "E" AdB AFE | "A" edc d3 :|
|: "D" fdB ABd | eff afd | "E" fge fed | Bcd efg |
"D" fdB ABd | eff afa | "E" bag fge | "A" edc d3 :|

